#N bitingoffpondreactions
x = 150, y = 135, rule = B3/S23
6$20b2obo37b2obo46b2obo$20bob2o37bob2o46bob2o$18b2o39b2o4b2o42b2o4b2o$
18bo40bo5bo43bo5bo$19bo40bo5bo43bo5bo$18b2o39b2o4b2o42b2o4b2o$20b2obo
37b2obo46b2obo$20bob2o37bob2o46bob2o$18b2o4b2o33b2o4b2o48b2o$18bo5bo
34bo5bo49bo$19bo5bo34bo5bo49bo$18b2o4b2o33b2o4b2o48b2o$20b2obo37b2obo
46b2obo$20bob2o37bob2o46bob2o11$22bo$21bobo85bo9bo$21bobo85b3o5b3o$17b
2ob2ob2ob2o84bo3bo$17bo4bo4bo83b2o3b2o$18b3o3b3o$20bobobo40bo47b3o$21b
3o41b2o45bo3bo$12b2o17b2o32b2o$12bobo4b2o3b2o4bobo33bo$14bo3bo2bobo2bo
3bo81bo3bo$12bob2o2bo2bobo2bo2b2obo36b2ob2o39b3o$10b3o3bo2b2o3b2o2bo3b
3o32bo2bob2o24b2o29b2o$9bo3bob2o11b2obo3bo31bo2bo28bo11b2o3b2o11bo$10b
3o3bo2b2o3b2o2bo3b3o32b2obo28bobo8bo2bobo2bo8bobo$12bob2o2bo2bobo2bo2b
2obo36bo30b2o2bo2bo2bo2bobo2bo2bo2bo2b2o$14bo3bo2bobo2bo3bo34b2o36bo4b
o2b2o3b2o2bo4bo$12bobo4b2o3b2o4bobo21b3o7bo2bo35bo4bo11bo4bo$12b2o17b
2o22b3o6bo2bo35bo4bo2b2o3b2o2bo4bo$21b3o36b3o2b2o33b2o2bo2bo2bo2bobo2b
o2bo2bo2b2o$20bobobo37bo36bobo8bo2bobo2bo8bobo$18b3o3b3o32bo3bo35bo11b
2o3b2o11bo$17bo4bo4bo31b4o35b2o29b2o$17b2ob2ob2ob2o85b3o$21bobo35b2o
51bo3bo$21bobo35b2o$22bo$112bo3bo$113b3o2$111b2o3b2o$112bo3bo$109b3o5b
3o$109bo9bo11$16b2o4b2obo29b2o3b2obo44b2obo6b2obo$17bo4bob2o30bo3bob2o
44bob2o6bob2o$16bo3b2o4b2o27bo8b2o46b2o2b2o4b2o$16b2o2bo5bo28b2o7bo47b
o3bo5bo$21bo5bo37bo47bo3bo5bo$16b2o2b2o4b2o27b2o7b2o46b2o2b2o4b2o$17bo
2bo5bo29bo3b2obo44b2obo4bo5bo$16bo4bo5bo27bo4bob2o44bob2o5bo5bo$16b2o
2b2o4b2o27b2o7b2o46b2o2b2o4b2o$20bo5bo37bo47bo3bo5bo$16b2o3bo5bo27b2o
8bo47bo3bo5bo$17bo2b2o4b2o28bo7b2o46b2o2b2o4b2o$16bo5b2obo29bo4b2obo
44b2obo6b2obo$16b2o4bob2o29b2o3bob2o44bob2o6bob2o7$71bobobobo$70bob2ob
2obo$68b3o7b3o28b2o$26bo40bo4b2ob2o4bo27b2o$24bobo40bo2b2obobob2o2bo$
25bobo38b2obobo5bobob2o$25bo41bobo2b2ob2o2bobo$67bobo3b3o3bobo$20bo6b
4o37bo11bo$5b2o14b2o3bo4bo$5bobo8bo2b2o4bobo3bo$6bobob3o2bobo3bo2bobo
3bo$7b2obobo3bo7bo$8b3o13bo5b2o4bo72b3o$4b3o6b2o5b2o2bo2bobobo2bobo36b
3o32bo3bo$10bob3o4bo2bo2b2o2b2o4bobo18bo15bo3bo30bo5bo$9bob3o5bo2bo12b
o18b5o13bo3bo31bo3bo$10b2o8b2o31bo5bo13b3o33b3o$15b3o12bo22bo2b3o50b3o
$14bobob2o11b2o19b2obo15b2o3b2o$14bo3b2o9b2o20bo3b2o13bo2bo2bo30b2o3b
2o$15b2o3bo10bo20bobo2bo8b2o2bo2bo3b3o28bo2bo2bo4bo$17b3o31b2ob2ob2o6b
o2bo2b2o6bo25b3o3bo2bo3bobo$15b2o41bo6bo2bo36bo6b2o2b2o3bo$16bob2o31b
2ob2ob2o6bo2bo47b2o3bo9b2o$16bo2bo32bobo2bo8b2o2b2o44b2o3bo9b2o$17b2o
32bo3b2o13bobo40b2o3bobo$52b2obo16bo39bobo4bo$53bo2b3o13b2o38bo$53bo5b
o51b2o$54b5o$56bo!