#N brokenlinesnewp48gun
x = 159, y = 98, rule = B3/S23
73b3o3b3o$73bo2bobo2bo$73bo7bo$73bo7bo$74bobobobo2$77bo$76b3o$75b2ob2o
$76b3o$76b3o$76b3o$68b3o5bobo5bo$68bo2bo4bobo4b3o$68bo8bo5bob2o$68bo3b
o11b3o$68bo3bo11b3o$68bo15b3o$69bobo12b2o5$78bo$79b2o$78b2o16$84bo$85b
2o$84b2o2$123b2o$119b4ob2o$119b6o$120b4o2$135b2o$7b2o4b2o4b2o112b2ob2o
$6bo2bobo4bobo2bo6b3o88bo9bo3b4o$6b3o10b3o4bob3o87bo11bo3b2o$9b2o6b2o
7bobo89b3o7bo2bo$8bo2b6o2bo9b2o99bo3b2o$8b2o8b2o10b2o97bo3b4o$24bo2b3o
bo101b2ob2o$5b2o5bo11bob3o2b3o67bo18b2o13b2o$6bo4bo3bo9b3o72bo17bo4bo$
6bobo3bo2bo65bo2bo15b3o21bo$7b2o3bo3b2o62bo37bo5bo$13bo4bo61bo3bo34b6o
$12bobo3bo4b4o8b4o20b4o17b4o21b2o$7bo5bo4bo3bo3bo7bo3bo19bo3bo41b2o$5b
2o9b2o8bo11bo23bo43bo$7b2o2bo3bo6bo2bo8bo2bo20bo2bo$6bo8bo87bo40b2o$
10bo3bo6bo81b2o35b4ob2o$10bo10bo80bobo18b2o15b6o$7bo3bo9b2o99b2o17b4o
9bo2bo$bo3b6o3bo14bobo2bo89bo33bo$obobo9b2o6b3o4b3obob2o117bo3bo$b2ob
2obob2o3b2o6b2o4bo6bo73bo36bo3bo4b4o$6b2ob2o3b2o5bo7bo5b2o72b2o8b4o23b
o4b2o$5b3o4b3o5bo87bobo7bo3bo18b2o7b3o$2b2obo4b2o8b2o6b2o5bo86bo17b2o
9b2o$bo2b2o3b3o8b2o7bo6bo81bo2bo20bo7bo4b4o$bobo8bo3b2o10b2obob3o118bo
3bo$2bo3bo5bobo2bo12bo2bobo79b3o14b2o24bo$3b4o3bobob2obobo95b3o13b4o
19bo2bo$5b2o3b2o4bobob3o91bo3bo12b2ob2o$b4o11bobo2bob2o91b2o6bo2bo5b2o
6b6o$o3bo12bobobob2o88bo10bo3bo11bo5bo$2ob4ob2o9bo3b3o7b2o74bo3b2ob2o
5bo4b2o16bo$4bob2obo9b2o3bobo3b2o2bo73bobo5b2o6bo3bo11bo4bo$2o24bo2bo
2b2o73bo3b2o2bo2bo5bo2bo5b2o7b2o$o2bob4o17bob4o83bo2bo12b2ob2o$2b2obo
2bo15bobobo2bo76bo5bo3bo12b4o$24b2o3b2o79b7o15b2o2$121b6o$120bo5bo$
126bo$112bo2bo4bo4bo$116bo5b2o$112bo3bo$113b4o!