#N fleetpuller
x = 438, y = 373, rule = B3/S23
68bo$67bobo32b3o$66b2ob2o31b3o$66b2o16b2o17bo$72b2o9bo2bo17b2o$66b3o2b
o12bo2bo17bo$70bob2o30bo$68bo2bo$71bo11bo35bo$69b2o11b2o3bo31bo4bobo$
83bo3b2o13b2o15bo3bo2bo$69bo13bobob2o3b2o8b2o19bo3bo$67b2ob2o11bo3b2o
3b2o9bo15b2o2b2ob2o$70bo13b3o35bo3bo$67bo16b3o35bobo$56bo12bo50bobob2o
5bo$55b2o63b2o2b2o4bobo$54b5o59b2obo8bobo$53bo29bo36bo10bo$52b2o5bo12b
2o8b3o35b2o$51b3ob2o15b2o11bo$52bobob2o2b2o20b2ob2o$53bo2bo2b2o20b2ob
2o$55b2o25bob2o46bo$57b2obo18b4o2bo47b2o$41b3o6bo9bo17bob6o46b2o$40bo
4bo3bobo27bo3b2o12b2o$40bo4b2o3bo47b2o$40bo6bo49bo$41b3obo2bobo$45b5o
$50bo$24bo97b3o6bo$24bo96bo4bo3bobo$24bo96bo4b2o3bo$28bo92bo6bo$24b3o
2bo92b3obo2bobo$23bo4bo66b3o6bo21b5o$23bo3bo66bo4bo3bobo25bo$24b3o11b
o2bo52bo4b2o3bo$3o35bo2bo52bo6bo40bo$43bo51b3obo2bobo37bo$4b2o17bobo12b
4obo21b2o32b5o38bo$6bo10b3o3bobo12b2obobo22b2o36bo10b2o$4obo11bo5bobo
39bo49b2o$5o18bobo52bo$24b2o51bobo$17bo2bo56bo2b2o$obo14bob2o54b7o68b
o$obo14bo2bo53bo2bo3bo6b2o60bo$bo15bobo25b2o9bo16b3o2b7o3b2o60bo$obo14b
3o25b2o8b3o17b3o2bo28b2o11b2o$b2o51bobobo17b2ob2o14b2ob3o7b2o11bobo$b
o52bobobo18b3obo2bo11b2ob2o8bo13bo$55b3o20b3ob2o12b2obobo10bo$56bo24b
o17bob2o7b3o$98b5o3bo3b3o45bo$61bo35b3o6bo51bo$16bo44bo25b2o9bobo57bo
$14b2ob2o54b3o6bo4b2o10b2o$14b3ob2o52bo4bo3bobo$15b5o52bo4b2o3bo26b2o
$5b2o9b3o53bo6bo29b2o$5b2o10bo55b3obo2bobo$77b5o84bo$82bo72bo10bo$147b
3o3b4o9bo$147bobo3b2ob2o$119bo27b3o2bo$119bo32b2o3bo$13b2o106bo5bo25b
4o$13b2o105bo6bobo24b3o$119bo3bo2bo40bo6bo$120bo2bobob2o37bobo5bo$77b
2o46bob2o37bo2bo4bo$77b4o5bob2o49b2o26b2o$75b2ob3o5bo3bobo46b2o$75b2o
3b2o10bo2bo$75b2obobo9bob3obo$80bo5bobo5bobo$77b3o15bo6b3o70bo6bo$102b
3o7b2o60bobo5bo$101bo3bo6b2o60bo2bo4bo$102b2ob3o11b3o2bo50b2o$102b2o4b
o10b4obo6b2o$81b2o22bo2bo13bo21b2o$81b2o23b2o15bobo7b2o8bobo$124b2o3b
o4b2o9bo50bo$134bo48bo6bo6b2o$130b4o48bobo5bo5b2o$97bo13b2o10b2o7bo49b
o2bo4bo$97bo13b2o10b2o58b2o$99bo5bo$98bo6bobo25b2o55b3o$97bo3bo2bo28b
2o$98bo2bobob2o$103bob2o91bo$173bo24bo$143b3o26b3o12b2o9bo$143bo2bo24b
2ob2o10bo$146bo25b3o12b2o$143b2o15b2o11bo24b3o$142bobo15b2o11bobo5b2o
$143bo2b3o24b4o4b2o$144b2o2bo27bo29bo$144bo3bo57bo$130bo7bo6bobo10bob
o11b2ob2o29bo$106b2o3bo17b3o5bobo7bo12bo10bo5bo$104b3o4b2o15b2ob4o2bo
2bo3bo2bo16bo7bo3bo$99b3obo8b2o5bo9b3o2bo9bo13b3o7b2o3bo32b3o$103bobo
2b5o5bobo9bo2b2o2bo21b2o7b2o$104bo3b3o7bobo13b2obobo3b2o2bo11b2o$119b
o18bo5b3o13b2o28bo23bo$161bo28bo23bo$114b2o76bo5bo15bo$141b2o16bo31bo
6bobo$115b2o15b2o7b2o15b3o29bo3bo2bo$105b2o9bo15b2o23b2ob2o29bo2bobob
2o14b3o$105b2o49bo4bo34bob2o$156b4o2bo47b2o$121b3o33b2o4bo46b2o10bo$121b
o2bo97bo$124bo36bobo58bo$121b2o$120bobo$121bo2b3o95b3o$122b2o2bo59bo$
122bo3bo45b2o7b2o2bobo30b2o$123bobo46b3o6b4o3bo29b2o10bo$125bo46b2obo
bo7bo44bo$122bo2bo49b2o10bob2o39bo$122bo64bobo$188bo26bo$121b2o2bo10b
o77b2o14b3o$122b3o12bo$135bobo73bo2bo$135b3o73bo2bo23bo$140b2o64bo4b3o
24bo$142bo64bo30bo$134b2o4b2o63bob2o$134b2o69bo3bo$201b2obo33b3o$196b
2o4b2o2bo2bo$126b2o57bo10bo11bo$126b2o49b2o6bo5bo3bo2bo$177b2o12bo2bo
3b2o$161bo28bobo4bob3o$159b2ob2o29b2obo2b2o$162b2o35b2o$159b3o15b2o20b
2o$161bo3bo10bo2bo19bo25bo$160bo3bo60b2o33bo$161b3obo19b2o37bobo34b2o
$163b2o20b2o73b2o$162bobo10b2o$163bo11b3o2b2o$162b2o12bo$161b3o11b2o5b
o2b2o$161bob2o11bo4bo3b2o70bo$160b5o11bo81bo$177bobo52bo23b3o$146bo30b
o52b2ob2o$145bobo29b2o51b2ob2o$145bo2b2o80b2o$143b7o26b2ob2o51b2obo$142b
o2bo3bo27bob2o24bo27bo2bo$141b3o2b7o22bobo3bo11bo9b2ob2o25bo2bo$143b3o
2bo26bo3b3o11b2o8b2ob2o26b2o$144b2ob2o26b2obo4bo8bobo8b2o$145b3obo2bo
28bo2bo20b2obo39bo$146b3ob2o29bobo22bo2bo38bo$149bo32b2o22bo2bo38bo$177b
obobo25b2o12b2o$178b2o41b2o$178b2o$172b3o2b2o$170b2obob2ob2o25bo$172b
2ob2obo9bobo13bob2o48bo$175b5o8bobobo9bo53bo$176b4o7bo2b2obo11bobo48b
o$173bo4bo9b2o3bobobo3bo2bobo$173b5o10b2o3b2ob2o3bo5bo$152b2o38bob2o5b
o2b2ob2o$152b2o12bo24bobo8bo3b2obo11b3o$164b2ob2o36b3ob2o9bob3o$165bo
2bo33bo3b4o13bobo38bo$166b2o36b2ob2o15b2o38bo$183bo9b2o8bo17bo2bo39bo
$181b2ob2o7b2o26b3o$181b2ob2o36bo$160b2o19b2o32b2o72bo$160b2o21b2obo28b
2o36bo36bo$184bo2bo64b3o33b3o$184bo2bo63b2ob2o16bo$185b2o65b3o16bobo$
253bo17bobo$253bobo16bo$226bo26b4o$224b2ob2o27bo$183b3o29bo10bo41b2ob
2o$214b3o24b2o9b2ob2o12bob3o$183bobo27b2ob2o22bo2bo7bo5bo11bob2o7bo$184b
o27b2obobo9b2o11b2ob2o7bo3bo10b2o2b2o6bobo$185bo25b3o2b3o7bo2bo11bo11b
o17b2o6bobo$185b2o10b3o12bo6bo5b2o3bo10b3o36bo$182bob2obo9bobo13b5obo
5bo4bo19b2o$182b4ob2o8b2obo13b4ob2o4bo3bo20b2o$183b5o11bo19bo6bo2bo$185b
2o11b3o17bo8bo$197bo2bo69bo17bo$198b2o43bo25b3o15bobo$223b2o14bo3bo43b
obo$214b2o7b2o15bo2bo25b3o16bo$214b2o24b2ob2o25b2ob2o$187b2o52bobo28b
o$187b2o53bo43b2o36bo$249b2o35b2o37b2o$296bo27b2o$243b2o50bobo$204bo11b
2o24bo2bo24bo24bobo$202b2ob2o8bo2bo24b2o24bobo24bo$204bo9b2o2bo51bo$215b
2ob2o101bo$215b2o3bo2b2o44b2o23b2o26bo$205b2o11bobo2b2o43bobo23b2o24b
3o$204bo2bo11b2o66bo16bo$203b2o3bo59b3obobo11bo16bobo$203bo4bo63b3o11b
ob2o13bobo$203bo3bo50bobo11b2o14b2o14bo$204bo2bo49bo2bo24bo2b2o$205bo
15b2o35bobo24bobo$219b2obo51b2o10b2o14b2o$221bo52b2o8bobo15b2o$217b2o
7b2o32bo23b2o26bo$218b2o6b2o31bob2o48bobo$219b3o13bobo21bob2o48bobo$235b
3o20bo3bo24b2o23bo$235b2o15bo6b4o24b2o$252bo6b3o$208b2o41bo58b2o$208b
2o28bo13b2o56b2o$236bobo12bo2bo33bobo29bo$236b3o12bobo34b3o28bobo$239b
o48b2o15bo13bobo$235b5o12bo25bo26bo14bo$250bo2bo23b3o24bo$251b4o21b2o
2bo10bo13b2o$253b2o20b2o2b2o8bobo12bo2bo10b2o$251bo24b2o11b3o12bobo11b
2o$250b2o25b5o10bo20b2o13bo$250bo2bo27b2o5b5o12bo7b2o12bobo$251b3o25b
o2bo20bo2bo20bobo$252bo27b2o22b4o20bo$306b2o$304bo48bo$240b2o44b2o15b
2o21b2o26bo$240b2o35b2o7b2o15bo2bo19b2o24b3o$277b2o25b3o29bo$305bo6bo
22bobo$313bo21bobo$311bobo22bo$312bo$306b2o$248b2o16bobo10b2o24bo2bo25b
2o$248b2o16b3o10b2o25b2o26b2o$266b2o11bobo62bo$279b3o61bobo$279bo2bo3b
2o55bobo$269bo11bobo2b2o56bo$267bobo12b2o$267b3o$270bo71b2o$266b5o71b
2o7b2o$350bobo$284b2o64bo$283bo2bo62b4o$281b3o64b2o2bo$281b2o3bo2b2o57b
o2bo$284bo4b2o58b3o$282bobo103bo$283bo58bobo44b2o$342bobo43b2o$221bo121b
o$220b2o49b2o$219b5o47b2o$218bo19bo138bo$217b2o5bo13bo108b2o29b2o5bo$
216b3ob2o8bobo5bo107bobo28b2o7bo$217bobob2o2b2o3bobo48bo66bo5bo29b3o$
210b3o5bo2bo2b2o5bo49bobo69b2o$210b3o7b2o59b2o37b3o29bo2bo$211bo10b2o
bo20b2o74bo28b2obo$212b2o11bo12b3o5b2o73bo29b2obo$213bo22b2o2bo109bo2b
o$212bo24b3o22bo12bobo73b3o$238bo23b4o9bo2bo72b2o$262bo3bo7bo3bo$219b
2o53bo3bo$210b2o7b2o43b3o83bo$210b2o62bo2bo72bo7bo$350bo5b3o$235bo5b2o
106b2o3bobo$233b2o7b2o71b2o38bo2bo$241b2o10b3o58bobo37bo2b2o$199bo40b
2o12bo61bo52b2o$198b2o12b2o26bo13bo2bo111b2o$197b5o10b2o4bo35bo2bo30b
3o141b2o$196bo21b3o34bobo32bo140bobo$195b2o5bo16b2o68bo141b2o$194b3ob
2o10bob2o5b2o208b2o$195bobob2o2b2o6b2ob2o2bo209bobo5b2o$196bo2bo2b2o6b
2o2b2o129bo82b2o5bobo$198b2o14bo39bo76bobo6bo2b4o30b2o56b2o$200b2obo10b
4o35bobo74bo9bob4o31b2o54b2o$203bo10b2o2bo35bo76bo2bo6b3o3b2o83bobo$214b
2o2bo114b3o9bo2b2o82b2o$215b3o128bob2o$216bo35b4o91bo25b2o34bo$252b2o
3bo25b2o88b2o35b2o5bo$222b2o29bo4bo23bobo88b2o34b2o7bo$222b2o31bob2o6b
o18bo131b3o$256bo8bobo101b2o2bo$265b2o103b3o$366b2o3bo44b2o$219b2o145b
2o48b2o$204b2o14bobo140b3obo$204b2o16bo137b2ob2o$216bo3b2o39bo93b2o3b
3o$215bo3b2o40bo92b2o$216b3o42bo74b2o16bob3o$336b2o11b3o4bo$350b2ob2o
bo3bo$352bo$211bobo143bo2bo$211bobo37b2o104bo$199b2obo47bobo105b2o$198b
3obo6bo2bo39bo$197bo4bobo4bo134b2o$198b2o6bobo3bo131b2o$199bo3bo2bo2b
2o$202bob2o3bo$201bobo$201bobo5$187bo$186bobo$185b2ob2o$185b2o32b2o$191b
2o25bobo$185b3o2bo29bo$189bob2o$187bo2bo$190bo$188b2o2$188bo$186b2ob2o
10bo$189bo10bo$186bo13b3o$188bo7$194bo$194bo$194bo!