#N p80piheptominohassler2
x = 116, y = 80, rule = B3/S23
57bo6bo$56bobo4b3o$49b2o6bo5bo2bo$48b4o9bob5o$44bob2ob2obo7b2ob4o$43b
o2b2o$42b3o2b2o2b2o$42b3o2bob4o11bo$43bo2bo3bo2bo10bo10b2o$44b4obo2b3o
3bob2obo10b4o$44b2o2b2o2b3o4b2ob2o6bob2ob2obo$49b2o2bo4b2o3b2o4bo2b2o
$44bob2ob2obo6b2ob2o4b3o2b2o2b2o$45b4o10bob2obo3b3o2bob4o$46b2o10bo10b
o2bo3bo2bo$58bo11b4obo2b3o$70b2o2b2o2b3o$75b2o2bo$56b4ob2o7bob2ob2obo
$55b5obo9b4o$50b2o4bo2bo5bo6b2o$50bobo4b3o4bobo$51bo6bo6bo$25b2o$26bo
$7bo17bo$7b3o15b2o$10bo$9b2o27b2o$38b2o$98b2o4b2o$69b2o27bobo2bobo$28b
2o40bo29bo2bo$15b3o10b2o26bobo8b3o5b3o21bo4bo$17bo38bobo8bo7b3o21bo4b
o$3bo13bo38b3o16b3o21bo4bo4bo$2b2o9bob2o55b3o26b2o5b2o$bob2o7b2o58b3o
32bob2o$3o2bo66b3o31b3o2bo$2bobobo101bobobo$3bobobo101bobobo$4bo2b3o31b
3o66bo2b3o$5b2obo32b3o58b2o7b2obo$6b2o5b2o26b3o55b2obo9b2o$6bo4bo4bo21b
3o16b3o38bo13bo$11bo4bo21b3o7bo8bobo38bo$11bo4bo21b3o5b3o8bobo26b2o10b
3o$12bo2bo29bo40b2o$10bobo2bobo27b2o$10b2o4b2o$76b2o$76b2o27b2o$105bo
$89b2o15b3o$90bo17bo$89bo$89b2o$50bo6bo6bo$49bobo4b3o4bobo$42b2o6bo5b
o2bo4b2o$41b4o9bob5o$37bob2ob2obo7b2ob4o$36bo2b2o$35b3o2b2o2b2o$35b3o
2bob4o11bo$36bo2bo3bo2bo10bo10b2o$37b4obo2b3o3bob2obo10b4o$37b2o2b2o2b
3o4b2ob2o6bob2ob2obo$42b2o2bo4b2o3b2o4bo2b2o$37bob2ob2obo6b2ob2o4b3o2b
2o2b2o$38b4o10bob2obo3b3o2bob4o$39b2o10bo10bo2bo3bo2bo$51bo11b4obo2b3o
$63b2o2b2o2b3o$68b2o2bo$49b4ob2o7bob2ob2obo$48b5obo9b4o$49bo2bo5bo6b2o
$50b3o4bobo$51bo6bo!