#N p81piheptominohassler2
x = 118, y = 88, rule = B3/S23
56b2o$56b2o2$30bo28bo$29bobo26bo$29bobo10bo3b2o11bo$27b2o2b2o8bobobob
o$28bobo2bo3b2o2bobobo39bo$27bo2b4o3bobobobob2o7b2o28bobo$27bobo4bo3b
2obo2bobo5bo2bo12b2o3bo10bobo$6bob2o4b2obo10bobobobo4bobo2b2o6bobo13b
obobobo8b2o2b2o$6b2o2bo2bo2b2o12bo3bo5b2o2b3o5b3o15bobobo2b2o3bo2bobo
$4b2o3bo4bo3b2o10bo3bo5b2o2b3o22b2obobobobo3b4o2bo$3bo3b2ob4ob2o3bo7b
obobobo4bobo2b2o23bobo2bob2o3bo4bobo$4b3obobo2bobob3o7bobo4bo3b2obo2b
obo23b2o2bobo4bobobobo$6bobo6bobo9bo2b4o3bobobobob2o22b3o2b2o5bo3bo$10b
4o14bobo2bo3b2o2bobobo15b3o5b3o2b2o5bo3bo10bob2o4b2obo$7b2o6b2o10b2o2b
2o8bobobobo13bobo6b2o2bobo4bobobobo8b2o2bo2bo2b2o$29bobo10bo3b2o12bo2b
o5bobo2bob2o3bo4bobo5b2o3bo4bo3b2o$11b2o16bobo28b2o7b2obobobobo3b4o2b
o4bo3b2ob4ob2o3bo$7b2o6b2o13bo39bobobo2b2o3bo2bobo6b3obobo2bobob3o$7b
o2bo2bo2bo51bobobobo8b2o2b2o7bobo6bobo$8b8o25b2o25b2o3bo10bobo13b4o$42b
o41bobo10b2o6b2o$6b5o2b5o24bobo18b2o20bo$5bo12bo20bo3b2o12b2o4bobo35b
2o$6b4o4b4o20bobo16b3o5bo31b2o6b2o$9b6o23bobo24b2o30bo2bo2bo2bo$6b3o6b
3o5b2o12b2ob2o56b8o$5bo2bo6bo2bob2o2bo12bo$5b2o10b2obo3bobo11bob2o37b
2o3b2o10b5o2b5o$21b3obobo8bobob2o37bobobobo9bo12bo$10b2o13bobo8b2o34b
2o7bobo7b2o3b4o4b4o$8bo3bo6b4obo2bob2o40bobo7bobo7bo7b6o$7bo4b2o4bo2b
o3bobob2o38b3obobo5bobo5bobo4b3o6b3o$12bo5b2o2b4obo40bo5b2o3bobobobo3b
2o4bo2bo6bo2bo$7bo2b2obo8b3ob2o40b2o8bobo3bobo8b2o10b2o$9b2o2b3o61bob
2o3b2obo$9b2o66bo9bo12b2o$2o5bo3b3o2b2o30bo32b3o14bo3bo$2o5b2o3bo34bo
bo47bo4b2o$15bo3b2o25bo3bo51bo$10b2o2b3o3bo25bo3bo46bo2b2obo$17b2o27b
2ob2o48b2o2b3o$12b3o2b2o48b2ob2o27b2o$14bob2o2bo46bo3bo25bo3b3o2b2o$15b
o51bo3bo25b2o3bo$14b2o4bo47bobo34bo3b2o5b2o$15bo3bo14b3o32bo30b2o2b3o
3bo5b2o$16b2o12bo9bo66b2o$30bob2o3b2obo61b3o2b2o$9b2o10b2o8bobo3bobo8b
2o40b2ob3o8bob2o2bo$9bo2bo6bo2bo4b2o3bobobobo3b2o5bo40bob4o2b2o5bo$10b
3o6b3o4bobo5bobo5bobob3o38b2obobo3bo2bo4b2o4bo$13b6o7bo7bobo7bobo40b2o
bo2bob4o6bo3bo$10b4o4b4o3b2o7bobo7b2o34b2o8bobo13b2o$9bo12bo9bobobobo
37b2obobo8bobob3o$10b5o2b5o10b2o3b2o37b2obo11bobo3bob2o10b2o$80bo12bo
2b2obo2bo6bo2bo$12b8o56b2ob2o12b2o5b3o6b3o$11bo2bo2bo2bo30b2o24bobo23b
6o$11b2o6b2o31bo5b3o16bobo20b4o4b4o$15b2o35bobo4b2o12b2o3bo20bo12bo$32b
o20b2o18bobo24b5o2b5o$11b2o6b2o10bobo41bo$14b4o13bobo10bo3b2o25b2o25b
8o$10bobo6bobo7b2o2b2o8bobobobo51bo2bo2bo2bo$8b3obobo2bobob3o6bobo2bo
3b2o2bobobo39bo13b2o6b2o$7bo3b2ob4ob2o3bo4bo2b4o3bobobobob2o7b2o28bob
o16b2o$8b2o3bo4bo3b2o5bobo4bo3b2obo2bobo5bo2bo12b2o3bo10bobo$10b2o2bo
2bo2b2o8bobobobo4bobo2b2o6bobo13bobobobo8b2o2b2o10b2o6b2o$10bob2o4b2o
bo10bo3bo5b2o2b3o5b3o15bobobo2b2o3bo2bobo14b4o$32bo3bo5b2o2b3o22b2obo
bobobo3b4o2bo9bobo6bobo$30bobobobo4bobo2b2o23bobo2bob2o3bo4bobo7b3obo
bo2bobob3o$29bobo4bo3b2obo2bobo23b2o2bobo4bobobobo7bo3b2ob4ob2o3bo$29b
o2b4o3bobobobob2o22b3o2b2o5bo3bo10b2o3bo4bo3b2o$30bobo2bo3b2o2bobobo15b
3o5b3o2b2o5bo3bo12b2o2bo2bo2b2o$29b2o2b2o8bobobobo13bobo6b2o2bobo4bob
obobo10bob2o4b2obo$31bobo10bo3b2o12bo2bo5bobo2bob2o3bo4bobo$31bobo28b
2o7b2obobobobo3b4o2bo$32bo39bobobo2b2o3bo2bobo$70bobobobo8b2o2b2o$58b
o11b2o3bo10bobo$59bo26bobo$58bo28bo2$60b2o$60b2o!