#N smallerspiralgrowth
#O Dave Greene, 2017
x = 926, y = 877, rule = B3/S23
442b2o$442b2o6$471b2o$471b2o6$411b2o$411bobo$413bo4b2o$409b4ob2o2bo2bo
$409bo2bobobobob2o$412bobobobo38b2o$413b2obobo37bobo$417bo38bo$455b2o$
403b2o$404bo7b2o$404bobo5b2o$405b2o2$476b2o$476bo$477b3o$479bo2$415b2o
$415bo3bo4bobo$416b4o5b2o33b2o$420b2o3bo33bobo$418b2o2bo36bo$419bob2o
35b2o$413b2o4bo37bo8b2o9b2o$411bo2bo2b2ob5o32b3o6b2o5b2o2bobo$411b2obo
bobobo2bo36bo12bobobo2bo$414bobobobo4bo27b2o4b2o14bobob2o$414bobob2o4b
2o28bo19b2obo$415bo38bobo20bob2o$455b2o20bobo2bo$419bo8b2o42b2o4bo2b2o
$418b3o7bo29b2o11bo2bo$417b5o4bobo28bo2bo11b2o4bo2b2o$416bo5bo3b2o30bo
bo2b2o12bobo2bo$415b2o2bo2b2o35bo2b2o13bob2o$389b2o23b3obobob3o39bo9b
2obo$388bobo24b2o2bo2b2o51bobob2o$390bo31bo27b2o5b2o14bobobo2bo$421bo
28bo2bobo2bo14b2o2bobo$452b2ob3o19b2o$416b2o36bo$413bo3bo36bob2o$413b
4o38bobo$411b2o$410bo2b2o$410b2obo$413bo4b2o$408b5ob2o2bo2bo$409bo2bob
obobob2o32bobo$407bo4bobobobo36b2o$407b2o4b2obobo36bo$417bo2$403b2o32b
2o$404bo7b2o22b2o$404bobo5b2o24bo$405b2o3$388bo$364b3o21bobo99b2o$366b
o21b2o100bobo$365bo124bo$415b2o$415bo3bo$416b4o$420b2o$403b2o13b2o2bo$
402bobo14bob2o$404bo8b2o4bo$411bo2bo2b2ob5o$411b2obobobobo2bo$414bobob
obo4bo52bobo$414bobob2o4b2o53b2o$415bo63bo2$428b2o30b2o$419b2o7bo31bob
o$419b2o5bobo31bo$426b2o2$366bo$365bo$365b3o77bo66b3o$446bo65bo$423b2o
19b3o66bo$416b2o5bobo$413bo3bo5bo$413b4o$411b2o$410bo2b2o$402bo7b2obo$
401bo11bo4b2o$401b3o4b5ob2o2bo2bo$409bo2bobobobob2o$329b2o44b2o30bo4bo
bobobo$328bobo45b2o29b2o4b2obobo$330bo44bo41bo2$403b2o78b2o$404bo7b2o
68b2o$404bobo5b2o70bo$405b2o2$343bo168bo$343bobo164bobo$343b2o166b2o
23b2o$535b2o$445b3o22bo66bo$415b2o28bo25bo$415bo3bo26bo22b3o$416b4o$
420b2o$418b2o2bo5bo$419bob2o6b2o$401bo11b2o4bo8b2o$401b2o8bo2bo2b2ob5o
$400bobo8b2obobobobo2bo$414bobobobo4bo$414bobob2o4b2o$415bo$373bo132bo
$371b2o55b2o75b2o$372b2o45b2o7bo76bobo$419b2o5bobo$426b2o2$297b2o236bo
$296bobo237bo$298bo19bo215b3o21b3o$318bobo237bo$318b2o239bo$416b2o$
337b2o74bo3bo77bo$338b2o73b4o76bobo$337bo73b2o60b2o19b2o$410bo2b2o36bo
20b2o$410b2obo38b2o20bo$413bo4b2o31b2o$408b5ob2o2bo2bo$399bo9bo2bobobo
bob2o$398bo8bo4bobobobo$398b3o6b2o4b2obobo$417bo$349bobo$349b2o52b2o
31b3o90b2o$350bo53bo7b2o22bo92bobo$369b2o33bobo5b2o23bo91bo$368bobo34b
2o$370bo2$581b2o$295bobo283bobo$295b2o263bo20bo$296bo264b2o$415b2o143b
2o$415bo3bo$416b4o$420b2o73b3o$403b3o12b2o2bo5bo66bo$405bo13bob2o6b2o
44bo20bo$404bo8b2o4bo8b2o46b2o$411bo2bo2b2ob5o50b2o$376bo34b2obobo3bo
2bo$376bobo35bobobobo4bo$376b2o36bobob2o4b2o$258b2o155bo$257bobo66bobo
$259bo66b2o100b2o122b2o$327bo91bo8bo122b2o$419b2o5bobo124bo$426b2o$
413bo$412bo$342bo69b3o$295b2o45b2o261b2o$294bobo44bobo260b2o$296bo309b
o$416b2o52b2o$413bo3bo52bobo$268bo144b4o53bo$266b2o143b2o106b2o$267b2o
141bo2b2o103b2o$410b2obo106bo$413bo4b2o33bo92bo$408b5ob2o2bo2bo32b2o
91bo45bo$409bo2bobobobob2o31b2o90b3o43bobo$352bo54bo4bobobobo173b2o$
351bo55b2o4b2obobo16bo$304bo46b3o19b2o42bo16b2o67bobo$303bo68bobo59bob
o67b2o69bo$303b3o68bo28b2o99bo69b2o$404bo7b2o160bobo$231bo172bobo5b2o$
231b2o172b2o$230bobo157bo$390bobo$390b2o$627b3o$271bo150bo204bo$271b2o
150b2o203bo$270bobo142b2o5b2o$415bo3bo$244bobo169b4o$244b2o174b2o119b
3o$245bo172b2o2bo75bo42bo$310b2o107bob2o74b2o43bo$311b2o100b2o4bo77bob
o$310bo100bo2bo2b2ob5o$411b2obobobobo2bo$398b2o14bobobobo4bo144bobo$
399b2o13bobob2o4b2o100bo44b2o$282bo115bo16bo111b2o42bo$280b2o201bo42b
2o69b2o$281b2o145b2o54bo112bobo$419b2o7bo53b3o112bo$208b2o209b2o5bobo$
207bobo216b2o$209bo$343bo76bo206bo$343b2o74b2o45b2o160bo22bo$342bobo
74bobo44bobo157b3o21b2o$318bo147bo183bobo$316b2o$317b2o97b2o$223bo189b
o3bo$221b2o190b4o$222b2o187b2o$410bo2b2o105b2o$357bo52b2obo106bobo$
286bo68b2o56bo4b2o100bo$286b2o68b2o50b5ob2o2bo2bo$285bobo121bo2bobobob
ob2o$399bo7bo4bobobobo$397b2o8b2o4b2obobo$235b3o160b2o17bo178bo$237bo
19bobo198bobo44bo91b2o21b2o$236bo20b2o112b2o30b2o54b2o45b2o88b2o21b2o$
258bo113b2o30bo54bo45b2o114bo$371bo32bobo$184b2o219b2o6bo$185b2o225bob
o$184bo135b2o89b2ob2o26b2o$321b2o89bo2bo26bobo43b3o89b3o$320bo92b2o27b
o45bo91bo$294bo194bo91bo$294bobo$294b2o119b2o$199bobo213bo3bo$199b2o
215b4o$200bo219b2o$418b2o2bo$333bo85bob2o120b3o20bobo90bo$333bobo77b2o
4bo123bo23b2o91b2o$333b2o76bo2bo2b2ob5o119bo22bo91b2o$411b2obobobobo2b
o261b2o$414bobobobo4bo258b2o$375bo38bobob2o4b2o260bo$235bo137b2o40bo
227bo$234bo139b2o245bo20b2o$234b3o191b2o98bobo88bobo20bobo$419b2o7bo
100b2o89b2o$419b2o5bobo100bo$426b2o$252b2o$251bobo350bo$253bo349b2o$
272bo330bobo$156b2o113bo114bo$155bobo113b3o19b2o91b2o$b2o154bo20bo113b
obo90bobo28b2o98b2o$b2o173b2o116bo118bo3bo97b2o$177b2o234b4o100bo$335b
2o74b2o$311bo22bobo73bo2b2o35bobo114bo$310bo25bo73b2obo37b2o113b2o$
310b3o100bo4b2o31bo48bo65bobo$408b5ob2o2bo2bo76bobo182bobo$409bo2bobob
obob2o77b2o183b2o$407bo4bobobobo59b3o203bo$351bobo53b2o4b2obobo59bo$
189b2o160b2o64bo61bo185b2o$188bobo161bo244bo46bo19b2o$190bo212b2o193b
2o45bo20bo$404bo7b2o183b2o44b3o$392bo11bobo5b2o$207bobo181bo13b2o$207b
2o182b3o$208bo19b2o396b2o$229b2o395bobo$228bo21bo375bo$133b3o112b2o
113b2o$135bo113b2o111bobo57bobo$134bo229bo50b2o6b2o113b3o$415bo3bo3bo
114bo185b2o$416b4o119bo184bobo$151bo268b2o302bo$150bo137bo22bo106b2o2b
o27b3o136b2o$150b3o135bobo20b2o106bob2o27bo138bobo$288b2o20bobo100b2o
4bo31bo69bobo65bo$411bo2bo2b2ob5o97b2o$411b2obobobobo2bo54bo43bo184bob
o$329bo84bobobobo4bo53b2o227b2o$328bo85bobob2o4b2o52b2o228bo$328b3o84b
o271b3o$687bo$164b2o262b2o258bo$163bobo253b2o7bo$165bo20bo232b2o5bobo
149bo$184b2o240b2o148bobo46bo$185b2o390b2o44bobo$413bo210b2o$411b2o$
412b2o3$416b2o144b2o$413bo3bo143b2o$413b4o146bo184b2o$128bo137bo144b2o
335bobo$128bobo111bo22bo114b2o28bo2b2o242b3o88bo$128b2o112b2o21b3o65b
2o46b2o27b2obo243bo$241bobo88bobo20bo24bo32bo4b2o238bo$193b2o139bo20bo
bo50b5ob2o2bo2bo$100b2o90bobo21bo138b2o52bo2bobobobob2o$99bobo92bo19b
2o191bo4bobobobo268bo$101bo113b2o88bo101b2o4b2obobo266bobo22b2o$305bob
o109bo268b2o22bobo20bobo$305b2o403bo23b2o$403b2o329bo$404bo7b2o24b2o
45bo$139bo22bobo239bobo5b2o23b2o45b2o113bobo21b2o$139b2o21b2o112b2o
127b2o32bo44bobo21bobo43bobo43b2o21bobo21bo$138bobo22bo113b2o230b2o44b
2o43bo22bo24b2o$276bo232bo45bo91b2o5$415b2o121b3o43b3o$415bo3bo118bo
45bo$106bo309b4o119bo45bo184b3o$105bo314b2o51bo206b2o88bo$105b3o111b2o
159bo22b2o13b2o2bo51b2o204bobo88bo$220b2o88b2o67bo24b2o13bob2o50b2o
205bo$219bo89bobo20bobo44b3o21bo9b2o4bo$311bo20b2o77bo2bo2b2ob5o$77b3o
112bo140bo77b2obobobobo2bo$79bo112bobo219bobobobo4bo$78bo113b2o88bobo
129bobob2o4b2o285bo20b3o$282b2o131bo293bobo20bo$283bo426b2o21bo$164b3o
261b2o330bo$140bo25bo252b2o7bo31b3o295bobo$139bo25bo180b3o70b2o5bobo
31bo46b3o22bo113b2o111b2o$115b2o22b3o206bo77b2o33bo45bo25bo111b2o$116b
2o229bo160bo22b3o46bo66bo$115bo135b2o328bo$252b2o325b3o92bo$226bo24bo
423bo$226bobo399bobo42b3o$226b2o218bo182b2o$416b2o29b2o180bo$413bo3bo
28b2o$84bo328b4o$82b2o327b2o290b2o$83b2o325bo2b2o14bo136b2o134b2o$311b
o98b2obo14b2o135b2o137bo$309b2o102bo4b2o8bobo68bo67bo$193b2o115b2o96b
5ob2o2bo2bo78b2o$169bobo20bobo89bo124bo2bobobobob2o77b2o$169b2o23bo89b
2o121bo4bobobobo381b3o$170bo112bobo111bobo7b2o4b2obobo381bo$397b2o18bo
340bo42bo73bo$372b2o24bo337bo20b2o114b3o$373b2o28b2o329bobo20bobo112bo
$117bo22b2o113bo116bo31bo7b2o255bo65b2o135b2o$117bobo19bobo113bobo146b
obo5b2o254b2o$117b2o22bo113b2o148b2o261bobo$91b2o787b2o$92b2o250bo189b
2o345bo$91bo112bo114bo22b2o189b2o346bob2o$203bo22b2o91b2o22b2o144b3o
43bo92b2o67bo175b2o4b3o2bo$203b3o19bobo90bobo168bo138bobo67b2o173b2o3b
o3b2o$227bo262bo69bobo65bo25bo42b2o179b4o$407b2o6b2o144b2o89bobo209b2o
15bo$408b2o5bo145bo91b2o208bobo12b3o$407bo8b3o444bo13bo$418bo306b3o
134b2o14b5o$588b3o134bo156bo$419bobo6bobo13bo45bo45bo45bo5bo39bo45bo
45bo5bo39bo31bo13bo67bo$287bo130bob2o7b2o11b3o43b3o43b3o43b3o6bo36b3o
43b3o43b3o43b3o29bobo11b3o67b2o$285b2o125b2o4bo10bo11bo45bo45bo45bo45b
o45bo45bo45bo33b2o10bo$147bo138b2o122bo2bo2b2ob5o17b2o44b2o36bo7b2o44b
2o44b2o44b2o44b2o44b2o44b2o13bo$145b2o263b2obobobobo2bo24b2o44b2o28bob
o13b2o44b2o44b2o44b2o44b2o44b2o44b2o6b2o$146b2o265bobobobo4bo22bo2bo
30bo11bo2bo27b2o13bo2bo42bo2bo42bo2bo42bo2bo42bo2bo42bo2bo42bo2bo4bobo
$413bobob2o4b2o24b2o8bo19bobo13b2o44b2o44b2o44b2o44b2o44b2o44b2o7b2o
35b2o$165b3o246bo35bob2o4b2o20b2o14bob2o42bob2o42bob2o42bob2o42bob2o
42bob2o42bob2o3b2o37bob2o$167bo282bobobo3bobo11b2o22bobobo17b2o22bobob
o17b2o22bobobo17b2o15bo6bobobo17b2o22bobobo17b2o22bobobo17b2o22bobobo
4bo12b2o22bobobo17b2o$166bo260b2o13b2o4b3o3bo17bo15b2o4b3o3bo17bo15b2o
4b3o3bo17bo15b2o4b3o3bo17bo15bo6b2o3bo17bo15b2o4b3o3bo6b2o9bo15b2o4b3o
3bo17bo11b3o7b3o3bo17bo15b2o4b3o3bo17bo$418b2o7bo2b2o10b2o3bo3b3ob2o
17bo13b2o3bo3b3ob2o17bo13b2o3bo3b3ob2o17bo13b2o3bo3b3ob2o17bo13b2o3b2o
2b3ob2o17bo13b2o3bo3b3ob2o4bobo10bo13b2o3bo3b3ob2o17bo8bo2bo6bo3b3ob2o
17bo13b2o3bo3b3ob2o17bo$32bo13bo31bo45bo45bo45bo13bo31bo45bo45bo45bo
17b2o5bobo3bo15b4o2bobo14b5o18b4o2bobo14b5o18b4o2bobo14b5o18b4o2bobo
14b5o18b2obo2bobo14b5o18b4o2bobo5bo8b5o18b4o2bobo14b5o8bob2o6b4o2bobo
14b5o18b4o2bobo14b5o$32b3o10bo32b3o43b3o43b3o43b3o11bobo29b3o43b3o43b
3o43b3o22b2o4bob2o15bo4bo13bo9b2o15bo4bo13bo9b2o15bo4bo13bo9b2o15bo4bo
13bo9b2o15bo4bo13bo9b2o15bo4bo13bo9b2o15bo4bo13bo9b2o3bo11bo4bo13bo9b
2o15bo4bo13bo$35bo9b3o19b3o11bo45bo45bo45bo10b2o33bo45bo45bo45bo25b2ob
obo12b3o5bobo12b3o5bobo12b3o5bobo12b3o5bobo12b3o5bobo12b3o5bobo12b3o5b
obo12b3o5bobo12b3o5bobo12b3o5bobo12b3o5bobo12b3o5bobo12b3o5bobo12b3o5b
obo12b3o5bobo12b3o5bobo12b3o5bobo12b3o$34b2o33bo10b2o44b2o44b2o44b2o
44b2o44b2o44b2o7bobo34b2o24bo3bo13bo9b2o15bo4bo13bo9b2o15bo4bo13bo9b2o
15bo4bo13bo9b2o15bo4bo13bo9b2o4bo10bo4bo13bo9b2o15bo4bo13bo9b2o15bo4bo
13bo9b2o15bo4bo13bo9b2o15bo$28b2o38bo5b2o12bo31b2o44b2o44b2o44b2o44b2o
44b2o13b2o29b2o29bo2b3o14b5o18b4o2bobo14b5o18b4o2bobo14b5o18b4o2bobo
14b5o18b4o2bobo5bobo6b5o8b2o8b4o2bobo14b5o18b2obo2bobo14b5o18b4o2bobo
14b5o18b4o2bobo14b5o18b4o$26bo2bo42bo2bo11bo30bo2bo42bo2bo42bo2bo42bo
2bo42bo2bo42bo2bo14bo27bo2bo29b3o21bo13b2o3bo3b3ob2o17bo13b2o3bo3b3ob
2o17bo8b3o2b2o3bo3b3ob2o17bo13b2o3bo3b3ob2o4b2o11bo9b3o2bo3bo3b3ob2o
17bo13b2o3bo3b3ob2o17bo13b2o3bo3b3ob2o17bo13b2o3bo3b3ob2o17bo13b2o3bo
3b2o$26b2o44b2o13b3o19b2o7b2o44b2o44b2o44b2o9bo34b2o44b2o44b2o34bo18bo
15b2o4b3o3bo17bo15b2o4b3o3bo17bo12bo2b2o4b3o3bo4bobo10bo15b2o4b3o3bo7b
o9bo12b2o2bo4b3o3bo4bo12bo15bo5b3o3bo4bobo10bo15b2o4b3o3bo17bo15b2o4b
3o3bo17bo15b2o4b3o2bo$23b2obo42b2obo35bobo4b2obo42b2obo42b2obo35b3o4b
2obo9b3o30b2obo42b2obo35b3o4b2obo34b2o18b2o22bobobo17b2o22bobobo17b2o
10bo11bobobo4b2o11b2o22bobobo17b2o22bobobo4bobo10b2o22bobobo4b2o11b2o
22bobobo17b2o22bobobo17b2o22bob2o$3b2o17bobobo22b2o17bobobo22b2o13bo3b
obobo22b2o17bobobo22b2o17bobobo22b2o13bo3bobobo8b5o9b2o17bobobo22b2o
17bobobo22b2o13bo3bobobo20b2o56bob2o42bob2o42bob2o6bo35bob2o42bob2o5b
2o35bob2o6bo19bo15bob2o42bob2o42bo$4bo17bo3b3o4b2o15bo17bo3b3o4b2o15bo
17bo3bob2ob3o16bo17bo3b3o4b2o15bo17bo3b3o4b2o15bo12bo4bo3b3o5b2o3b2o9b
o17bo3b3o4b2o15bo17bo3b3o4b2o15bo12bo4bo3b3o4b2o13bo55b2o44b2o44b2o44b
2o44b2o44b2o29b2o13b2o44b2o44b2o$2bo17b2ob3o3bo3b2o13bo17b2ob3o3bo3b2o
13bo17b2ob3o7bo14bo17b2ob3o3bo3b2o13bo17b2ob3o3bo3b2o13bo17b2ob3o3bo3b
3o3b3o6bo17b2ob3o3bo3b2o13bo17b2ob3o3bo3b2o13bo17b2ob3o3bo3b2o10b3o54b
o2bo42bo2bo42bo2bo27b2o13bo2bo42bo2bo42bo2bo28bobo11bo2bo42bo2bo$2b5o
14bobo2b4o18b5o14bobo2b4o18b5o14bobo2b2o3bo3b2o11b5o14bobo2b4o18b5o14b
obo2b4o18b5o14bobo2b4o4b2o3b3o6b5o14bobo2b4o18b5o14bobo2b4o18b5o14bobo
2b4o15bo56b2o44b2o44b2o28bobo13b2o44b2o44b2o44b2o44b2o$7bo13bo4bo15b2o
9bo13bo4bo15b2o9bo13bo4bo15b2o9bo13bo4bo15b2o9bo13bo4bo15b2o9bo13bo4bo
8b5ob3o9bo13bo4bo15b2o9bo13bo4bo15b2o9bo13bo4bo15b2obo12b3o35b2o44b2o
44b2o36bo7b2o44b2o44b2o44b2o44b2o44b2o$4b3o12bobo5b3o12bobo5b3o12bobo
5b3o12bobo5b3o12bobo5b2obo2bo8bobo5b3o12bobo5b3o12bobo5b3o12bobo5b3o
12bobo5b3o12bobo5b3o6b3o3bobo5b3o12bobo5b3o12bobo5b3o12bobo5b3o12bobo
5b3o12bobo5b3o12bobob2o10bo4bo32bo45bo45bo45bo45bo45bo45bo45bo45bo$3bo
15b2o9bo13bo4bo15b2o9bo13bo4bo15b2o9bo6bo6bo4bo15b2o9bo13bo4bo15b2o9bo
13bo4bo15b2o9bo6bo6bo4bo15b2o9bo13bo4bo15b2o9bo13bo4bo15b2o9bo13bo2bo
11bo3bo7b2o24b3o43b3o43b3o43b3o43b3o43b3o43b3o43b3o43b3o$3b4o18b5o14bo
bo2b4o18b5o14bobo2b4o18b5o5bobo6bobo2b4o18b5o14bobo2b4o18b5o14bobo2b4o
18b5o14bobo2b4o18b5o14bobo2b4o18b5o14bobo2b4o18b5o14b2o25bobo25bo45bo
45bo45bo45bo45bo45bo45bo45bo$b2o3bo3b2o13bo17b2ob3o3bo3b2o13bo17b2ob3o
3bo3b2o13bo10b2o5b2ob3o3bo3b2o13bo17b2ob3o3bo3b2o13bo17b2ob3o3bo3b2o
13bo17b2ob3o3bo3b2o13bo13bo3b2ob3o3bo3b2o13bo17b2ob3o3bo3b2o13bo35bo2b
2o7bo329bo45b3o$o2b3o4b2o15bo17bo3b3o4b2o15bo17bo3b3o4b2o15bo17bo3b3o
4b2o15bo17bo3b3o4b2o15bo17bo3b3o4b2o15bo17bo3b3o4b2o15bo9bobo5bo3b3o4b
2o4b2o9bo17bo3b3o4b2o15bo37bo7b2o328b2o46bo$2obo22b2o17bobobo22b2o17bo
bobo22b2o17bobobo13b2o7b2o17bobobo22b2o17bobobo22b2o17bobobo22b2o10b2o
5bobobo11b2o9b2o17bobobo22b2o35bobo59b2o275bobo45bo$3bo42b2obo42b2obo
42b2obo12b2o28b2obo42b2obo42b2obo42b2obo13bo28b2obo56b2o62bobo20bobo$
3b2o44b2o44b2o44b2o13bo30b2o44b2o44b2o44b2o44b2o54bo5bo60bo20b2o$49bo
2bo42bo2bo42bo2bo42bo2bo42bo2bo42bo2bo42bo2bo42bo2bo52bobo3bo82bo$51b
2o44b2o44b2o44b2o14b2o28b2o44b2o44b2o44b2o49b2obobobo4bo6b2o21bo321bo$
11b2o44b2o44b2o44b2o33bo10b2o7b2o35b2o44b2o44b2o44b2o43bo2bo2b2ob4o7b
2o19bo206b2o113bo$12bo45bo45bo45bo31bobo11bo9bo35bo45bo45bo45bo45b2o4b
o10bo21b3o203bobo66bobo44b3o$9b3o43b3o43b3o43b3o33b2o8b3o43b3o43b3o43b
3o43b3o52bobo189bo48bo66b2o$9bo45bo45bo45bo45bo45bo45bo45bo45bo39bo15b
2o166bo22b2o115bo$94bobo318bobo181b2o22bobo$73b2o20b2o319b2o12bo169b2o
89bo$73bobo19bo332b3o120bo137b2o$73bo353bo122bo139b2o$121b3o303b2o121b
3o88bobo$53bobo65bo117bo401b2o$54b2o66bo114bobo21b3o44b2o214bo45b2o70b
o$54bo183b2o21bo25bo19b2o215b2o45b2o$262bo25bo20bo213bobo44bo$286b3o2$
417b2o$416bobo5b2o322b2o$416bo7b2o321bobo$155bo206b2o51b2o332bo$156b2o
203b2o46b2o380bo$155b2o206bo45bobo17bo361b2o$409bo9b2o4b2obobo359bobo$
227b3o189bo4bobobobo265b2o$205bobo19bo193bo2bobobobob2o54bo160b3o43bob
o66bo$206b2o20bo191b5ob2o2bo2bo53bo163bo45bo65bo$206bo218bo4b2o9bo45b
3o111b2o47bo112b3o$422b2obo13b2o161b2o$349bo72bo2b2o13b2o159bo112bo$
350bo72b2o289bobo$97b2o249b3o45bo28b4o285b2o$96b2o299b2o26bo3bo190bo$
77bo20bo297b2o30b2o188b2o$78bo181bobo193bo162b2o$76b3o182b2o193b2o43b
2o21bo22b3o112bo$261bo193bobo42bobo21bobo22bo112bobo$126bo184bo190bo
21b2o22bo113b2o$127b2o180bobo$126b2o182b2o254bobo$438b2o126b2o$292bo
44b2o92b2o5bobo126bo157b3o$291b2o43b2o93b2o7bo286bo$291bobo44bo101b2o
284bo$768b2o$427bo341b2o$426bobob2o4b2o330bo$158b3o68bo159b2o35bobobob
o4bo189b2o44b3o$158bo71bo157b2o33b2obobobobo2bo29bo160bobo46bo$159bo
68b3o159bo32bo2bo2b2ob5o28bobo160bo45bo$425b2o4bo33b2o$431bob2o$372bo
57b2o2bo$189bo183bo58b2o$190bo180b3o54b4o$188b3o22b2o212bo3bo165bo$
212b2o69bo143b2o166b2o$99bobo112bo69b2o310b2o$100b2o181b2o239b3o112bob
o$100bo425bo112b2o$332bobo89bobo98bo114bo$333b2o90b2o48bo22bobo$333bo
91bo49b2o21b2o227bo$417b2o55bobo22bo227bobo$131bo229bo54bobo5b2o138b2o
136b2o23b2o$130b2o228b2o54bo7b2o139b2o134bobo$130bobo227bobo52b2o147bo
138bo42bo$317b2o427b2o$316b2o111bo315bobo$274bo43bo100b2o4b2obobo$252b
o20b2o144bo4bobobobo173b3o$250bobo20bobo145bo2bobobobob2o8bobo161bo$
251b2o167b5ob2o2bo2bo8b2o89bobo69bo$425bo4b2o11bo89b2o$422b2obo108bo$
422bo2b2o218b2o$166bo229bo26b2o221b2o$164bobo230bo27b4o216bo$165b2o
228b3o27bo3bo$123bo67b2o235b2o$124bo65b2o310b2o$122b3o67bo308bobo$240b
2o261bo$239b2o$241bo$566bo$438b2o102bo22bo$315bo45bo69b2o5bobo8b2o91b
2o21b3o111b3o$313bobo43bobo69b2o7bo9b2o89bobo65bo71bo$314b2o44b2o78b2o
7bo158bo71bo$608b3o111b3o$427bo224bo71bo$158b2o68bo45bo151bobob2o4b2o
213bo71bo$158bobo68bo45bo68bo81bobobobo4bo213b3o$158bo68b3o43b3o67b2o
78b2obobobobo2bo$343bobo77bo2bo2b2ob5o$425b2o4bo$431bob2o142b2o44bo$
188bo241b2o2bo141bobo44b2o$189bo242b2o144bo43bobo$187b3o238b4o$427bo3b
o$213b3o204bobo4b2o$213bo207b2o501b2o$214bo94bo111bo80bo421b2o$308b2o
190b2o$308bobo190b2o$149bobo113b2o$150b2o112b2o186bo90bo$150bo115bo70b
o45bo33b2o31b2o90bo114b2o$338bo45bo21b2o8bobo5b2o25b2o89b3o111bobo$
336b3o43b3o20b2o9bo7b2o161bo70bo$407bo7b2o99b3o66b2o$518bo67b2o$429bo
87bo$251bo167b2o4b2obobo243bo$249bobo167bo4bobobobo35b2o206bobo$182b3o
65b2o169bo2bobobobob2o33b2o205b2o$182bo237b5ob2o2bo2bo32bo158bo$183bo
117bo123bo4b2o192bo$299bobo120b2obo128b3o67b3o$300b2o120bo2b2o129bo$
423b2o130bo$425b4o168b2o$425bo3bo168b2o$236b3o136b2o51b2o167bo$236bo
137b2o$237bo93b2o43bo$330b2o98b3o$332bo96bo3bo$288b2o138bo5bo$288bobo
138bo3bo$288bo70bo70b3o5b2o$360b2o76bobo$359b2o79bo$440b2o74bobo44bo$
516b2o43b2o67bo$427bo89bo44b2o66b2o43b3o$227bo198bobob2o4b2o6bo184bobo
45bo$228b2o45bo150bobobobo4bo6b2o230bo$227b2o47bo146b2obobobobo2bo7bob
o$274b3o146bo2bo2b2ob5o$425b2o4bo31bobo66b2o$431bob2o28b2o66bobo$430b
2o2bo29bo68bo$212bo219b2o141bo68bo$211b2o215b4o143b2o66bo$211bobo213bo
3bo142bobo66b3o$427b2o$423bo$355bo65bobo169bo$354b2o66b2o168bo$354bobo
119bo115b3o$476b2o$196bobo276bobo$197b2o184bo33b2o$197bo183bobo22b2o8b
obo5b2o$382b2o21b2o9bo7b2o$407bo7b2o$270b3o334b2o$270bo158bo176bobo$
271bo147b2o4b2obobo177bo$419bo4bobobobo$421bo2bobobobob2o$420b5ob2o2bo
2bo214b2o$425bo4b2o217b2o$325bo96b2obo222bo$324b2o96bo2b2o80b3o$234b2o
88bobo96b2o84bo42b2o$234bobo188b4o79bo42bobo$234bo190bo3bo97bo25bo$
428b2o96bo$526b3o$353bobo122bo$309bo44b2o75bobo44bobo89bo44bo$310b2o
42bo24b2o50b2o45b2o88b2o44bo$309b2o68bobo50bo136b2o43b3o$221bo157bo$
219bobo216b2o$220b2o209b2o5bobo$431b2o7bo$440b2o$584bo$427bo156b2o$
426bobob2o4b2o145bobo$298bo127bobobobo4bo$297b2o124b2obobobobo2bo190bo
$297bobo123bo2bo2b2ob5o189b2o$425b2o4bo193bobo$431bob2o4b2o44b2o$430b
2o2bo5b2o42bobo$257b2o158bobo12b2o5bo46bo42b2o$256b2o160b2o8b4o98b2o$
258bo159bo8bo3bo97bo$427b2o2$286bo67b2o$287bo45bo19b2o$285b3o43bobo21b
o47bo49bo$243bo88b2o68b2o48bo45bobo$244bo157bobo47b3o43b2o$242b3o172b
2o80bo$416bobo5b2o115bo$416bo7b2o114bo$415b2o123b3o$561b2o$429bo132b2o
$419b2o4b2obobo130bo$419bo4bobobobo$391bo29bo2bobobobob2o$389bobo28b5o
b2o2bo2bo168b3o$390b2o33bo4b2o172bo$422b2obo177bo$422bo2b2o$423b2o$
281b2o142b4o$280b2o143bo3bo28bo$282bo145b2o28b2o112bo$457bobo42b2o67bo
$355bo77bo67bobo67b3o$356bo77bo68bo$354b3o70b2o2bo2b2o$266bo114bo44b3o
bobob3o$264bobo113b2o45b2o2bo2b2o$265b2o113bobo45bo5bo3b2o$429b5o4bobo
$430b3o7bo$431bo8b2o74bo$516bobo$427bo88b2o$426bobob2o4b2o$426bobobobo
4bo$412bobo8b2obobobobo2bo30bo113bo$413b2o8bo2bo2b2ob5o27b2o114b2o$
413bo11b2o4bo33b2o112bobo$431bob2o$430b2o2bo$327bo104b2o$325bobo100b4o
96b2o$326b2o99bo3bo3b2o92b2o$307bo119b2o5bobo91bo$306b2o128bo42b2o$
306bobo68bo102b2o66bo$378b2o99bo66b2o$377b2o168b2o$403b2o$402b2o$404bo
12b2o$359b3o54bobo5b2o$291bobo65bo56bo7b2o$292b2o66bo54b2o$292bo$429bo
$419b2o4b2obobo$419bo4bobobobo59bo$421bo2bobobobob2o54b2o67b2o$420b5ob
2o2bo2bo55b2o67b2o$425bo4b2o125bo$422b2obo$422bo2b2o$423b2o$425b4o$
425bo3bo$428b2o$456bo$331b2o22bo74b3o23b2o$330b2o24bo72bo3bo21bobo$
332bo21b3o71bo5bo64b3o21bo$428bo5bo66bo19b2o$428bo5bo65bo21b2o$429bo3b
o4b2o$430b3o5bobo$440bo$317bo122b2o$315bobo$316b2o109bo$411bo14bobob2o
4b2o$412b2o12bobobobo4bo$411b2o10b2obobobobo2bo$423bo2bo2b2ob5o96b3o$
425b2o4bo103bo$431bob2o27bobo69bo$430b2o2bo27b2o$432b2o29bo$428b4o$
427bo3bo$427b2o$433b2o$378bo53bobo$356bo19bobo55bo$355b2o20b2o$355bobo
2$405b2o10b2o$404b2o10bobo5b2o$406bo9bo7b2o$338bobo74b2o$339b2o$339bo
89bo38bo$419b2o4b2obobo37b2o$419bo4bobobobo36bobo$421bo2bobobobob2o77b
o$420b5ob2o2bo2bo77b2o$425bo4b2o78bobo$422b2obo$422bo2b2o$423b2o$425b
4o$425bo3bo$428b2o2$430b3o$400bobo26bo3bo$401b2o25bo5bo$401bo26bo5bo$
380b3o45bo5bo$380bo48bo3bo4b2o$381bo48b3o5bobo$440bo$440b2o2$427bo17b
2o$426bobob2o4b2o6bobo$426bobobobo4bo8bo$423b2obobobobo2bo52b2o$423bo
2bo2b2ob5o50bobo$368bobo54b2o4bo57bo$369b2o60bob2o27bobo$369bo60b2o2bo
27b2o$432b2o29bo$428b4o$427bo3bo$427b2o2$424bo$425bo$423b3o3$417b2o$
416bobo5b2o$416bo7b2o$415b2o2$429bo$419b2o4b2obobo$419bo4bobobobo$421b
o2bobobobob2o$391bo28b5ob2o2bo2bo$392b2o31bo4b2o$391b2o29b2obo$422bo2b
2o$423b2o$425b4o$425bo3bo$428b2o3$425bo$424b2o27b3o$424bobo28bo$454bo$
438b2o$431b2o5bobo$431b2o7bo$440b2o2$427bo$426bobob2o4b2o$426bobobobo
4bo$423b2obobobobo2bo$423bo2bo2b2ob5o$415bo9b2o4bo$416b2o13bob2o$415b
2o13b2o2bo$432b2o$428b4o$427bo3bo$427b2o7$417b2o$416bobo5b2o$416bo7b2o
$415b2o2$429bo$419b2o4b2obobo$419bo4bobobobo$421bo2bobobobob2o$420b5ob
2o2bo2bo$425bo4b2o$422b2obo$422bo2b2o$423b2o$425b4o$425bo3bo$428b2o7$
438b2o$431b2o5bobo$431b2o7bo$440b2o2$427bo$426bobob2o$426bobobobo$425b
2obobobo2bo$426bo2b2ob4o$426bo4bo$427b3obo2b2o$429b2o3b2o17$435b2o$
435b2o!