#N solifuge
#O Nico Brown, 2025
x = 335, y = 351, rule = B3/S23
195b4o$194bo3bo$184b2o12bo$185b2o7bo2bo15bo2bo$184bo32bo$213bo3bo$172b
2o5b3o32b4o$172b2o7bo$180bo52b4o$232bo3bo$160b2o27bo46bo$160b2o26b3o41b
o2bo15bo2bo$187b2obo64bo$181bo5b3o61bo3bo$181b2o5b2o62b4o$158b3o19bob
o$161bo109b4o$162bo13b2o92bo3bo$158b2o3bo11bobo96bo$158bo4bo13bo92bo2b
o15bo2bo$158bo134bo$158bo2bo127bo3bo$290b4o2$309b4o$177b2o129bo3bo$178b
2o132bo$177bo130bo2bo2$151b2ob2o16b3o$142bo11bobo17bo$139bo4bo9b3o16b
o151b2o$139bo5bo4bo2bo171b2o$139bo4bo$142bo6bo4bo$148b2o178b3ob2o$149b
obo3bo18bo150b2o4b3o$133b3o14b2o2bo19b2o25bo123b3obo4bo$134bo16b3o19b
obo24b3o121bo4bob3o$140bo59bob2o121b3o4b2o$140b2o2bo24b2o30b3o121b2ob
3o$136bo5bo2bo22bobo30b2o115b2o$135bo2b2o5bo24bo146bo2bo$135bo5b2o2bo
170b2o$135bo2bo5bo171bo5bo$127b2o7bo2b2o174b2obob3o$126bo2bo10bo175bo
bo$127bobo186b3o$126bo3b2o38b2o$125b3o2b2o39b2o$170bo$125bobo$126bo38b
3o$167bo140b3o$166bo128b2o3b2o5bob3o$293b2o2bo2b2o8b2o$298bo$292bo5bo
8b3o$293bo4bo8b3o$167bo124b3o2bo10bo$167b2o123bo10b3o$166bobo123b2o2b
o5bo2b3o$296bo5bo5bo$162b2o130b2o10bobo$161bobo49bo93bo$163bo48b3o$211b
2obo$211b3o99bo$212b2o98b3o$311b2ob2o$312bob3o$163b2o146bobobo$164b2o
148bo$163bo147b2o2$158b3o133b2o$160bo133b2o$159bo$312bo$282b2o28bo2bo
$282b2o31bo$312bo2bo$160bo150b2ob2o$160b2o108b2o15b2o4bo17bo2bo$159bo
bo108b2o15b2o4bo18bo$287bo29bo$155b2o117b3o11bo27bobo$154bobo131bo6bo
22bo$156bo136b4o18b3o$292b2obobo$291bobo3b2o$225bo52b2o10b2o3bobo$224b
3o50bo2bo10bobob2o$224bob2o50b2o12b4o$156b2o67b3o65bo$157b2o66b2o$156b
o2$151b3o130bo$153bo128b2ob2o7bo$152bo132b2o7bo$281bo3b2o9bo$263bo17b
o2bo11bo$263bobo16b2o12bo4bobo$263b2o27b2o10b2o$153bo122b2o13bobo12bo
$153b2o135bo2bo10bobo$152bobo129bobo3bobo10bo2bo$284b2o4bo12bobo$148b
2o134b2o5b2o10b2o$147bobo143bobo$149bo125b2o$275b2o3$263b2o$263b2o$149b
2o$150b2o85bo$149bo86b3o12b2o$235b2obo12b2o$144b3o88b3o$146bo89b2o$145b
o2$249b3o$248bo3bo$248bo4bo$146bo106bo$146b2o101b2o2bo$145bobo100bob2o
2$141b2o$140bobo$142bo2$250bo$244bo5bo$243bo2bo$232bobo7bo3bo$142b2o87b
o2bo7bo3b2o$143b2o86bo3bo5b2o$142bo88bo2bo9bo$232bobo6bobo$137b3o100b
2o2bo$139bo83b2ob2o13b2ob2o$138bo103bobo$224bobo16bo$225bo$231b2obo$228b
ob2ob3o$139bo87b3obo4bo$139b2o85bo4bob3o$138bobo86b3ob2obo$228bob2o$134b
2o81b3o$133bobo84bo$135bo85bo$217b2o3bo$217bo4bo$217bo$217bo2bo2$135b
2o$136b2o$135bo2$130b3o89bo$132bo89bo$131bo90b3o$225bo$223b2o3$132bo93b
2o$132b2o91bob2o$131bobo89b2ob2o$225bo$127b2o$126bobo$128bo74b2o$203b
2o3$191b2o$191b2o24b2o$128b2o86bo2bo$129b2o84b2ob2o$128bo50b2o23b2o11b
o$179b2o23b2o21bo$123b3o100b4o$125bo97b2o2bobobo$124bo42b2o23b2o27bob
o2b2o4b2o$167b2o23b2o25b2o4b2o2bobo$221bobobo2b2o$223b4o$155b2o23b2o43b
o$125bo29b2o23b2o$125b2o$124bobo$143b2o23b2o$120b2o21b2o23b2o$119bobo
26bo75bo$121bo26bo75b2o$131b2o15bo77bo$131b2o90b2obo$136bo25b2o59b3o$
136bo24bo2bo$136bo14b2o8bo2bo53b2o$121b2o27bo2bo6b2ob2o44b2obo4bo$122b
2o27b2o8bobo44bobo7b3o$121bo17bobo20bo45bo10bo3b2o$138bo2bo67b2o10bo2b
o$116b3o19bo3bo12bo2bo51bo11b2o$118bo19b2o3bo11bo2bo$117bo20b2o3bo12b
obo2b2o29b2o$140bo2bo16bobo29b2o$142bobo16bo41b3o$143bo62bo$149b2obo50b
2obo$118bo27bob2ob3o50b2o$118b2o25b3obo4bo$117bobo24bo4bob3o44b2o$145b
3ob2obo33bo11b2o$113b2o31bob2o35bobo10b2obo$112bobo69bo2bo15b2o$114bo
70b2o13b4o$192b2o8bo$189b2o$119bo60b2o10bob2o$117b2o56b2o2bo2bo4b2obo
3b2o$113b3o2b2o56b2o2b2o5b2o3bob2o$113bo73b2obo$114bo77b2o$169b2o18b2o
$169b2o$109b3o$111bo$110bo46b2o23b3o$157b2o23bo2bo$172b3o6bo4bo$183bo
bo$141b2o37bob3o$141bobo37b2o$141bo18b3o4b2o$166bo2bo$167b2o$106b2o63b
3o9bo$105bobo74bo2bo$107bo75b2o$169b2o$167b2obo$167b2o$173bo$166b2o2b
ob2o$169bo2bo$167bobo$168bo2$102b3o$104bo$103bo3$158b2o$158b2o2$165bo
$165b2o2bo$161bo5bo2bo$99b2o59bo2b2o5bo$98bobo59bo5b2o2bo$100bo59bo2b
o5bo$161bo2b2o$145b2o18bo$145b2o4$150b3o$150bobo$135bo3bo9bo2bo$95b3o
36bo5bo7bo2bo$97bo36b2o3bo9b2o$96bo38b5o4b2o$137bo5bo$144b2o5b2o$153b
o$138bo11bobo$138bo12bo$140bo$139bo$139bo$92b2o28b2o$91bobo28b2o$93bo
2$110b2o$110b2o4$93b2o$92bo2bo$92bobo$93bo$104b3o$104bo2bo$104b2ob2o$
91bo17bo$90b2o11b3o2bo$89bobo10bo$103b3o$77b2o25bo$77b2o11bo2b2o$90bo
2$65b2o$65b2o14bo13b2o$81bo12bobo$48b2o31bo11b3o$34bo12b2o45b2o$22b2o
10b2o13bo19bo$18b2obob2o9bobo32bo5b2o$16bo19b2o31bo4bo2bo$21b2o10bo2b
o38b2o3bo$14b2o16b2obo40bob3o$18bo14b2o42bo$13bo2bo58b2o3bo$14bobo58b
2o$15bo59bo2b2o$22bo$20b4o57bo$19b2o3bo57bo$18bo3b2o55bo2bo$19b4o57b2o
$20bo59bo3$8bo$6b2ob2o$9b2o$5bo3b2o$5bo2bo$6b2o2$2o2$8bobo$8b2o$8b2o!